X:1
T:Alicia, 88.86
T:Alicia, 88.86
T:H. Middleton, 1889
T:Public Domain Courtesy of the Cyber Hymnal™
C:H. Middleton, 1889
Z:Public Domain
Z:Courtesy of the Cyber Hymnal™
%%score ( 1 2 ) ( 3 4 )
L:1/8
Q:1/4=100
M:2/4
K:Ab
V:1 treble 
V:2 treble 
V:3 bass 
V:4 bass 
V:1
 [EA]2 [EG][EA] | [DF]2 [Ed]2 | [Ec]2 ([=EB][FA]) | ([FA]2 [=EG]2) | [FA]2 [FA][EA] | B3 [Ec] | %6
 [EB]2 (FG) | E4 | [CF]2 [DF][EF] | [FB]2 [EA]2 | d2 [Ac]2 | B4 | [Ae]2 [Ac][FA] | [FB]2 B2 | %14
 [CA]4 |] %15
V:2
 x4 | x4 | x4 | x4 | x4 | (EF G) x | x2 =D2 | E4 | x4 | x4 | (FG) x2 | (A2 G2) | x4 | x2 (ED) | %14
 x4 |] %15
V:3
 [A,C]2 [B,D][A,C] | [A,B,]2 [G,B,]2 | [A,C]2 C2 | (C3 B,) | A,2 [D,F,][C,A,] | (G,A, B,)[A,,F,] | %6
 [B,,G,]2 [B,,A,]2 | (A,2 G,2) | [E,=A,]2 [D,B,][C,A,] | [D,B,]2 [C,C]2 | [B,,D]2 E2 | E4 | %12
 [C,E]2 [F,F][F,C] | [D,D]2 [E,G,]2 | [A,,A,]4 |] %15
V:4
 x4 | x4 | x2 (G,F,) | C,4 | F,E, x2 | B,,3 x | x4 | E,4 | x4 | x4 | x2 (A,,C,) | (E,3 D,) | x4 | %13
 x4 | x4 |] %15

